packages/icons/brands/BSC.svg

<svg fill="none" viewBox="0 0 24 24" xmlns="http://www.w3.org/2000/svg"><path d="m12 24c6.627 0 12-5.373 12-12s-5.373-12-12-12-12 5.373-12 12 5.373 12 12 12z" fill="#f3ba2f"/><g fill="#fff"><path clip-rule="evenodd" d="m12 7.616-3.107 3.108-1.808-1.808 4.916-4.916 4.917 4.917-1.808 1.808zm-6.192 2.577-1.808 1.809 1.808 1.808 1.808-1.81-1.808-1.808zm3.086 3.086 3.106 3.107 3.11-3.109 1.809 1.808h-.001l-4.918 4.918-4.915-4.916-.003-.003 1.81-1.805zm9.3-3.086-1.808 1.809 1.808 1.808 1.808-1.81-1.808-1.808z" fill-rule="evenodd"/><path d="m13.836 12-1.834-1.834-1.356 1.356-.156.156-.321.321-.003.002.003.003 1.833 1.834 1.835-1.835v-.003"/></g></svg>

<svg xmlns="http://www.w3.org/2000/svg" fill="none" viewBox="0 0 24 24">
    <path fill="#f3ba2f" d="M12 24c6.627 0 12-5.373 12-12S18.627 0 12 0 0 5.373 0 12s5.373 12 12 12z"/>
    <g fill="#fff">
        <path fill-rule="evenodd" d="m12 7.616-3.107 3.108-1.808-1.808L12.001 4l4.917 4.917-1.808 1.808zm-6.192 2.577L4 12.002l1.808 1.808L7.616 12l-1.808-1.808zm3.086 3.086L12 16.386l3.11-3.109 1.809 1.808h-.001L12 20.003l-4.915-4.916-.003-.003 1.81-1.805zm9.3-3.086-1.808 1.809 1.808 1.808L20.002 12l-1.808-1.808z" clip-rule="evenodd"/>
        <path d="m13.836 12-1.834-1.834-1.356 1.356-.156.156-.321.321-.003.002.003.003 1.833 1.834 1.835-1.835V12"/>
    </g>
</svg>
